public/images/interview.svg

<?xml version="1.0" encoding="UTF-8"?>
<svg xmlns="http://www.w3.org/2000/svg" width="48" height="48" viewBox="0 0 48 48" fill="none">
  <rect width="48" height="48" rx="24" fill="#E6F7FE"></rect>
  <g clip-path="url(#clip0_10798_5835)">
    <path d="M31.5547 19.6816C31.4049 19.6816 31.2777 19.734 31.1729 19.8389C31.068 19.9437 31.0156 20.071 31.0156 20.2207V23.5898C31.0156 24.4733 30.8434 25.3118 30.499 26.1055C30.1696 26.8841 29.7129 27.5692 29.1289 28.1606C28.5449 28.7521 27.8561 29.2126 27.0625 29.542C26.2839 29.8864 25.4453 30.0586 24.5469 30.0586C23.6484 30.0586 22.8099 29.8864 22.0312 29.542C21.2376 29.2126 20.5488 28.7521 19.9648 28.1606C19.3809 27.5692 18.9242 26.8841 18.5947 26.1055C18.2503 25.3118 18.0781 24.4733 18.0781 23.5898V20.2207C18.0781 20.071 18.0257 19.9437 17.9209 19.8389C17.8161 19.734 17.6888 19.6816 17.5391 19.6816C17.3893 19.6816 17.262 19.734 17.1572 19.8389C17.0524 19.9437 17 20.071 17 20.2207V23.5898C17 24.5781 17.1797 25.514 17.5391 26.3975C17.8984 27.2809 18.3963 28.0596 19.0327 28.7334C19.6691 29.4072 20.4141 29.9538 21.2676 30.373C22.1211 30.8073 23.0345 31.0544 24.0078 31.1143V33.9219H21.2227C21.0729 33.9219 20.9456 33.9743 20.8408 34.0791C20.736 34.1839 20.6836 34.3112 20.6836 34.4609C20.6836 34.6107 20.736 34.738 20.8408 34.8428C20.9456 34.9476 21.0729 35 21.2227 35H27.8711C28.0208 35 28.1481 34.9476 28.2529 34.8428C28.3577 34.738 28.4102 34.6107 28.4102 34.4609C28.4102 34.3112 28.3577 34.1839 28.2529 34.0791C28.1481 33.9743 28.0208 33.9219 27.8711 33.9219H25.0859V31.1143C26.0592 31.0544 26.9727 30.8073 27.8262 30.373C28.6797 29.9538 29.4246 29.4072 30.061 28.7334C30.6974 28.0596 31.1953 27.2809 31.5547 26.3975C31.9141 25.514 32.0938 24.5781 32.0938 23.5898V20.2207C32.0938 20.071 32.0413 19.9437 31.9365 19.8389C31.8317 19.734 31.7044 19.6816 31.5547 19.6816ZM24.9062 12H24.1875C23.5736 12 22.9896 12.1198 22.4355 12.3594C21.8965 12.584 21.4248 12.8984 21.0205 13.3027C20.6162 13.707 20.2943 14.1862 20.0547 14.7402C19.8301 15.2793 19.7178 15.8558 19.7178 16.4697V23.9492C19.7178 24.5632 19.8301 25.1396 20.0547 25.6787C20.2943 26.2327 20.6162 26.7119 21.0205 27.1162C21.4248 27.5205 21.8965 27.835 22.4355 28.0596C22.9896 28.2992 23.5736 28.4189 24.1875 28.4189H24.9062C25.5202 28.4189 26.1042 28.2992 26.6582 28.0596C27.1973 27.835 27.6689 27.5205 28.0732 27.1162C28.4775 26.7119 28.7995 26.2327 29.0391 25.6787C29.2637 25.1396 29.376 24.5632 29.376 23.9492V16.4697C29.376 15.8558 29.2637 15.2793 29.0391 14.7402C28.7995 14.1862 28.4775 13.707 28.0732 13.3027C27.6689 12.8984 27.1973 12.584 26.6582 12.3594C26.1042 12.1198 25.5202 12 24.9062 12ZM28.2979 17.8848H26.3438C26.194 17.8848 26.0667 17.9372 25.9619 18.042C25.8571 18.1468 25.8047 18.2741 25.8047 18.4238C25.8047 18.5736 25.8571 18.7008 25.9619 18.8057C26.0667 18.9105 26.194 18.9629 26.3438 18.9629H28.2979V20.4678H26.3438C26.194 20.4678 26.0667 20.5202 25.9619 20.625C25.8571 20.7298 25.8047 20.8571 25.8047 21.0068C25.8047 21.1566 25.8571 21.2839 25.9619 21.3887C26.0667 21.4935 26.194 21.5459 26.3438 21.5459H28.2979V23.0508H26.3438C26.194 23.0508 26.0667 23.1032 25.9619 23.208C25.8571 23.3128 25.8047 23.4401 25.8047 23.5898C25.8047 23.7396 25.8571 23.8669 25.9619 23.9717C26.0667 24.0765 26.194 24.1289 26.3438 24.1289H28.2979C28.2529 25.0273 27.9048 25.7873 27.2534 26.4087C26.6021 27.0301 25.8197 27.3408 24.9062 27.3408H24.1875C23.2741 27.3408 22.4917 27.0301 21.8403 26.4087C21.189 25.7873 20.8408 25.0273 20.7959 24.1289H22.75C22.8997 24.1289 23.027 24.0765 23.1318 23.9717C23.2367 23.8669 23.2891 23.7396 23.2891 23.5898C23.2891 23.4401 23.2367 23.3128 23.1318 23.208C23.027 23.1032 22.8997 23.0508 22.75 23.0508H20.7959V21.5459H22.75C22.8997 21.5459 23.027 21.4935 23.1318 21.3887C23.2367 21.2839 23.2891 21.1566 23.2891 21.0068C23.2891 20.8571 23.2367 20.7298 23.1318 20.625C23.027 20.5202 22.8997 20.4678 22.75 20.4678H20.7959V18.9629H22.75C22.8997 18.9629 23.027 18.9105 23.1318 18.8057C23.2367 18.7008 23.2891 18.5736 23.2891 18.4238C23.2891 18.2741 23.2367 18.1468 23.1318 18.042C23.027 17.9372 22.8997 17.8848 22.75 17.8848H20.7959V16.4697C20.7959 15.7959 20.9718 15.1857 21.3237 14.6392C21.6756 14.0926 22.1436 13.6846 22.7275 13.415V14.9424C22.7275 15.0921 22.7799 15.2194 22.8848 15.3242C22.9896 15.429 23.1169 15.4814 23.2666 15.4814C23.4014 15.4814 23.5249 15.429 23.6372 15.3242C23.7495 15.2194 23.8057 15.0921 23.8057 14.9424V13.1006C23.9105 13.1006 24.0265 13.1006 24.1538 13.1006C24.2811 13.1006 24.4121 13.1006 24.5469 13.1006C24.6816 13.1006 24.8127 13.1006 24.9399 13.1006C25.0672 13.1006 25.1982 13.1006 25.333 13.1006H25.2881V14.9424C25.2881 15.0921 25.3442 15.2194 25.4565 15.3242C25.5688 15.429 25.6924 15.4814 25.8271 15.4814C25.9769 15.4814 26.1079 15.429 26.2202 15.3242C26.3325 15.2194 26.3887 15.0921 26.3887 14.9424V13.415C26.9577 13.6995 27.4181 14.1151 27.77 14.6616C28.1219 15.2082 28.2979 15.8109 28.2979 16.4697V17.8848Z" fill="#511374"></path>
  </g>
  <defs>
    <clipPath id="clip0_10798_5835">
      <rect width="23" height="23" fill="white" transform="matrix(1 0 0 -1 12.7188 35.3105)"></rect>
    </clipPath>
  </defs>
</svg>

<svg id="Layer_1" data-name="Layer 1" xmlns="http://www.w3.org/2000/svg" xmlns:xlink="http://www.w3.org/1999/xlink" viewBox="0 0 48 48"><defs><style>.cls-1{fill:none;}.cls-2{fill:#e6f7fe;}.cls-3{clip-path:url(#clip-path);}.cls-4{fill:#af2022;}</style><clipPath id="clip-path"><rect class="cls-1" x="12.72" y="12.31" width="23" height="23"/></clipPath></defs><path class="cls-2" d="M24,0h0A24,24,0,0,1,48,24h0A24,24,0,0,1,24,48h0A24,24,0,0,1,0,24H0A24,24,0,0,1,24,0Z"/><g class="cls-3"><path class="cls-4" d="M31.55,19.68a.55.55,0,0,0-.38.16.54.54,0,0,0-.15.38v3.37a6.42,6.42,0,0,1-.52,2.52,6.58,6.58,0,0,1-1.37,2.05,6.31,6.31,0,0,1-2.07,1.38A6.46,6.46,0,0,1,20,28.16a6.58,6.58,0,0,1-1.37-2.05,6.41,6.41,0,0,1-.51-2.52V20.22a.54.54,0,0,0-1.08,0v3.37a7.86,7.86,0,0,0,2,5.14,7.71,7.71,0,0,0,2.24,1.64,6.7,6.7,0,0,0,2.74.74v2.81H21.22a.55.55,0,0,0-.38.16.53.53,0,0,0,0,.75h0a.55.55,0,0,0,.38.16h6.65a.54.54,0,0,0,0-1.08H25.09V31.11a6.91,6.91,0,0,0,2.74-.74,7.66,7.66,0,0,0,2.23-1.64,7.14,7.14,0,0,0,1.49-2.33,7.51,7.51,0,0,0,.54-2.81V20.22a.54.54,0,0,0-.15-.38A.55.55,0,0,0,31.55,19.68ZM24.91,12h-.72A4.58,4.58,0,0,0,21,13.3a4.23,4.23,0,0,0-1.33,3.17V24A4.23,4.23,0,0,0,21,27.17a4.51,4.51,0,0,0,1.42.94,4.39,4.39,0,0,0,1.75.36h.72a4.55,4.55,0,0,0,3.16-1.3A4.23,4.23,0,0,0,29.38,24V16.47A4.49,4.49,0,0,0,29,14.74a4.66,4.66,0,0,0-1-1.44,4.36,4.36,0,0,0-1.41-.94A4.4,4.4,0,0,0,24.91,12Zm3.39,5.88h-2a.54.54,0,0,0-.38.93.54.54,0,0,0,.38.15h2v1.51h-2a.54.54,0,0,0-.38.15.54.54,0,0,0,.38.93h2v1.5h-2a.55.55,0,0,0-.38.16A.53.53,0,0,0,26,24L26,24a.55.55,0,0,0,.38.16h2A3.4,3.4,0,0,1,25,27.37h-.72a3.37,3.37,0,0,1-3.39-3.21h1.95a.54.54,0,1,0,0-1.08h-2v-1.5h1.95a.55.55,0,0,0,.54-.54.55.55,0,0,0-.16-.39.54.54,0,0,0-.38-.15H20.8V19h1.95a.54.54,0,0,0,.38-.15.55.55,0,0,0,.16-.39.55.55,0,0,0-.54-.54H20.8V16.47a3.3,3.3,0,0,1,.52-1.83,3.23,3.23,0,0,1,1.41-1.23v1.53a.54.54,0,0,0,.15.38.55.55,0,0,0,.39.16.52.52,0,0,0,.37-.16.5.5,0,0,0,.17-.38V13.1h1.48v1.84a.46.46,0,0,0,.17.38.52.52,0,0,0,.37.16.55.55,0,0,0,.39-.16.5.5,0,0,0,.17-.38V13.41a3.61,3.61,0,0,1,1.38,1.25,3.33,3.33,0,0,1,.53,1.81Z"/></g></svg>
